svg/help.svg

<?xml version="1.0" encoding="UTF-8"?>
<svg xmlns="http://www.w3.org/2000/svg" xmlns:xlink="http://www.w3.org/1999/xlink" width="32" height="32" viewBox="0 0 32 32">
<path fill-rule="nonzero" fill="rgb(0%, 0%, 0%)" fill-opacity="1" d="M 16 1.28125 C 7.882812 1.28125 1.28125 7.882812 1.28125 16 C 1.28125 24.117188 7.882812 30.71875 16 30.71875 C 24.117188 30.71875 30.71875 24.117188 30.71875 16 C 30.71875 7.882812 24.117188 1.28125 16 1.28125 M 17.148438 23.636719 C 17.148438 23.777344 17.058594 23.867188 16.921875 23.867188 L 15.175781 23.867188 C 15.039062 23.867188 14.945312 23.777344 14.945312 23.636719 L 14.945312 21.664062 C 14.941406 21.601562 14.964844 21.542969 15.011719 21.5 C 15.054688 21.453125 15.113281 21.429688 15.175781 21.433594 L 16.921875 21.433594 C 17.058594 21.433594 17.148438 21.527344 17.148438 21.664062 Z M 19.167969 14.890625 L 17.632812 17.003906 C 17.171875 17.621094 17.035156 17.945312 17.035156 18.722656 L 17.035156 19.457031 C 17.035156 19.597656 16.941406 19.6875 16.804688 19.6875 L 15.289062 19.6875 C 15.152344 19.691406 15.0625 19.597656 15.0625 19.460938 L 15.0625 18.519531 C 15.0625 17.601562 15.265625 17.121094 15.75 16.453125 L 17.289062 14.339844 C 18.089844 13.238281 18.367188 12.710938 18.367188 11.929688 C 18.367188 10.621094 17.449219 9.796875 16.140625 9.796875 C 14.855469 9.796875 14.027344 10.578125 13.753906 11.976562 C 13.730469 12.113281 13.636719 12.183594 13.5 12.160156 L 12.054688 11.90625 C 11.914062 11.886719 11.847656 11.792969 11.871094 11.65625 C 12.214844 9.453125 13.796875 8.003906 16.1875 8.003906 C 18.664062 8.003906 20.339844 9.632812 20.339844 11.90625 C 20.339844 13.007812 19.949219 13.8125 19.167969 14.890625 M 19.167969 14.890625 "/>
</svg>

<svg role="img" viewBox="0 0 32 32" height="32" width="32" xmlns="http://www.w3.org/2000/svg"><path d="M16 1.281C7.883 1.281 1.281 7.883 1.281 16c0 8.117 6.602 14.719 14.719 14.719 8.117 0 14.719-6.602 14.719-14.719 0-8.117-6.602-14.719-14.719-14.719m1.148 22.356c0 .14-.09.23-.226.23h-1.746c-.137 0-.23-.09-.23-.23v-1.973a.22.22 0 0 1 .23-.23h1.746c.137 0 .226.093.226.23Zm2.02-8.746-1.535 2.113c-.461.617-.598.941-.598 1.719v.734c0 .14-.094.23-.23.23h-1.516c-.137.004-.226-.09-.226-.226v-.941c0-.918.203-1.399.687-2.067l1.54-2.113c.8-1.102 1.077-1.63 1.077-2.41 0-1.309-.918-2.133-2.226-2.133-1.286 0-2.114.781-2.387 2.18-.024.136-.117.207-.254.183l-1.445-.254c-.14-.02-.207-.113-.184-.25.344-2.203 1.926-3.652 4.317-3.652 2.476 0 4.152 1.629 4.152 3.902 0 1.102-.39 1.906-1.172 2.985m0 0"/></svg>
